X: 1171
T: Last Train From Loughrea
B: ralph
B: to learn
M:6/8
R: jig
Q: 3/8=100
K:Dmajor
V:1 
|:DEF D3|A3 FAd|fed e2 d|fed B2 A|
 dB/c/d def|dcB A2 D|DEF AFd|1 FEA D3:|2 FEA D2 E||
 |:F3 FED|D3 FED|FDA D3|E3 EFA|
 dB/c/d def|dcB A2 D|DEF AFd|1 FEA D3:|2 FEA D2 d||
 |:fed dB/c/d|f3 def|g3 edc|dcB ABc|
 dB/c/d def|dcB A2 D|DEF AFd|1 FEA D2 d:|2 FEA D2 E||
 |:DAA dAA|D3 B2 A|D3 FAA|def ecA|
 dB/c/d def|dcB A2 D|D3 AFd|1 FEA D2 E:|2 FEA D3||
% abcbook-tune_id 63443e7c2db68a85ca67c223
% abcbook-link-0 https://www.youtube.com/watch?v=IJln2v6FElY
% abcbook-link-title-0 Last Train to Loughrea/Across the Black River

% abcbook-boost 0
% abcbook-tablature 
% abcbook-transpose 
% abcbook-lastupdated 1666789024957
% abcbook-soundfonts 
% abcbook-repeats 3


